Sources/FrostedUI/Resources/Icons.xcassets/calendarPlus16.imageset/calendar-plus-16.svg

<svg width="16" height="16" viewBox="0 0 16 16" fill="none" xmlns="http://www.w3.org/2000/svg" data-fui-icon="true">
  <path
    d="M11.833 9.08301C12.2471 9.08301 12.5829 9.41891 12.583 9.83301V11.25H14C14.4141 11.25 14.7499 11.5859 14.75 12C14.7498 12.4141 14.4141 12.75 14 12.75H12.583V14.166C12.583 14.5802 12.2472 14.916 11.833 14.916C11.4189 14.9158 11.083 14.5801 11.083 14.166V12.75H9.66699C9.25289 12.75 8.91717 12.4141 8.91699 12C8.91712 11.5859 9.25286 11.25 9.66699 11.25H11.083V9.83301C11.0831 9.41902 11.419 9.08318 11.833 9.08301ZM10.833 1.08301C11.2471 1.08301 11.5829 1.41891 11.583 1.83301V2.41602H12.167C13.3174 2.41619 14.2499 3.34963 14.25 4.5V7.5C14.2498 7.91406 13.9141 8.25 13.5 8.25C13.0859 8.25 12.7502 7.91406 12.75 7.5V6.91602H3.25V12.166C3.25 12.4881 3.51098 12.7498 3.83301 12.75H7.5C7.91413 12.75 8.24987 13.0859 8.25 13.5C8.24982 13.9141 7.91411 14.25 7.5 14.25H3.83301C2.68257 14.2498 1.75 13.3165 1.75 12.166V4.5C1.75013 3.34963 2.68265 2.41619 3.83301 2.41602H4.41699V1.83301C4.41712 1.41891 4.75286 1.08301 5.16699 1.08301C5.58097 1.08318 5.91686 1.41901 5.91699 1.83301V2.41602H10.083V1.83301C10.0831 1.41902 10.419 1.08318 10.833 1.08301ZM3.83301 3.91602C3.51107 3.91619 3.25013 4.17805 3.25 4.5V5.41602H12.75V4.5C12.7499 4.17805 12.4889 3.91619 12.167 3.91602H3.83301Z"
    fill="currentColor"
  />
</svg>

<svg xmlns="http://www.w3.org/2000/svg" width="16" height="16" fill="none" data-fui-icon="true" viewBox="0 0 16 16"><path fill="currentColor" d="M11.833 9.083a.75.75 0 0 1 .75.75v1.417H14a.75.75 0 0 1 0 1.5h-1.417v1.416a.75.75 0 0 1-1.5 0V12.75H9.667a.75.75 0 0 1 0-1.5h1.416V9.833a.75.75 0 0 1 .75-.75m-1-8a.75.75 0 0 1 .75.75v.583h.584c1.15 0 2.083.934 2.083 2.084v3a.75.75 0 0 1-1.5 0v-.584h-9.5v5.25c0 .322.261.584.583.584H7.5a.75.75 0 0 1 0 1.5H3.833a2.084 2.084 0 0 1-2.083-2.084V4.5c0-1.15.933-2.084 2.083-2.084h.584v-.583a.75.75 0 0 1 1.5 0v.583h4.166v-.583a.75.75 0 0 1 .75-.75m-7 2.833a.584.584 0 0 0-.583.584v.916h9.5V4.5a.584.584 0 0 0-.583-.584z"/></svg>
